icons/copilot-warning-16.svg

<svg width="16" height="16" viewBox="0 0 16 16" fill="none" xmlns="http://www.w3.org/2000/svg">
<g clip-path="url(#clip0_9325_119360)">
<path fill-rule="evenodd" clip-rule="evenodd" d="M8.49808 14.8107C9.25887 15.3996 10.2135 15.75 11.25 15.75C13.7353 15.75 15.75 13.7353 15.75 11.25C15.75 9.60094 14.863 8.15906 13.54 7.37546C12.8692 6.9781 12.0862 6.75 11.25 6.75C10.417 6.75 9.63686 6.97634 8.96772 7.37087C7.64049 8.15343 6.75 9.59772 6.75 11.25C6.75 12.0589 6.96343 12.818 7.33706 13.4739C7.63262 13.9928 8.02841 14.4472 8.49808 14.8107ZM10.5 8.75C10.5 8.33579 10.8366 8 11.2508 8C11.6647 8.00044 12 8.33606 12 8.75V11C12 11.4142 11.6642 11.75 11.25 11.75C10.8358 11.75 10.5 11.4142 10.5 11V8.75ZM11.25 14.5C11.8023 14.5 12.25 14.0523 12.25 13.5C12.25 12.9477 11.8023 12.5 11.25 12.5C10.6977 12.5 10.25 12.9477 10.25 13.5C10.25 14.0523 10.6977 14.5 11.25 14.5Z" fill="black"/>
<path fill-rule="evenodd" clip-rule="evenodd" d="M14.3538 6.11442C14.3374 6.10449 14.321 6.09464 14.3045 6.08486C13.8842 5.83592 13.4309 5.63682 12.9531 5.49557C12.9831 5.30622 13 5.07388 13 4.78747C13 4.02182 12.8774 3.54541 12.6302 3.23253C12.3967 2.93694 11.9369 2.64619 10.9172 2.53288C9.87297 2.41686 9.42883 2.62362 9.23578 2.83046C9.03194 3.04886 8.87725 3.50883 8.9942 4.44444C9.05193 4.9063 9.1586 5.27849 9.30982 5.57107C8.92263 5.70333 8.55303 5.87406 8.20587 6.07875C7.48331 6.50479 6.85713 7.07889 6.36945 7.75962C5.897 7.94529 5.35448 8.03747 4.74633 8.03747C4.0941 8.03747 3.50959 7.95586 3.01944 7.74622L2.99634 7.86173V12.1171C3.2611 12.3217 4.2814 12.8416 5.57292 13.1956C5.69505 13.552 5.8498 13.8935 6.03367 14.2163C6.17631 14.4668 6.33639 14.7058 6.51224 14.9319C2.65002 14.3955 -0.00366211 11.9215 -0.00366211 11.2401V9.36753C0.0657067 8.74371 0.662905 7.65848 1.5876 7.27319C1.60075 7.20302 1.6121 7.1305 1.62392 7.05491C1.65252 6.87212 1.68393 6.67138 1.75044 6.44254C1.54926 5.93459 1.49631 5.3595 1.49631 4.78747C1.49631 3.91675 1.62376 3.01816 2.18906 2.30264C2.76803 1.56982 3.68325 1.17875 4.91348 1.04205C6.11928 0.908076 7.17514 1.07631 7.8571 1.80698C7.90658 1.86 7.95294 1.9152 7.99631 1.9716C8.03967 1.9152 8.08969 1.86 8.13918 1.80698C8.82113 1.07631 9.87699 0.908076 11.0828 1.04205C12.313 1.17875 13.2282 1.56982 13.8072 2.30264C14.3725 3.01816 14.5 3.91675 14.5 4.78747C14.5 5.23941 14.4669 5.69327 14.3538 6.11442ZM6.76184 2.83046C6.56879 2.62362 6.12465 2.41686 5.08045 2.53288C4.06068 2.64619 3.6009 2.93694 3.36737 3.23253C3.12018 3.54541 2.99763 4.02182 2.99763 4.78747C2.99763 5.57978 3.12668 5.95823 3.30583 6.15788C3.46808 6.33869 3.82531 6.53747 4.74763 6.53747C5.6013 6.53747 6.08666 6.30186 6.38574 5.99654C6.70112 5.67458 6.9127 5.17023 7.00342 4.44444C7.12037 3.50883 6.96568 3.04886 6.76184 2.83046Z" fill="black"/>
</g>
<defs>
<clipPath id="clip0_9325_119360">
<rect width="16" height="16" fill="white"/>
</clipPath>
</defs>
</svg>

<svg xmlns="http://www.w3.org/2000/svg" width="16" height="16" viewBox="0 0 16 16"><path d="M8.498 14.811a4.53 4.53 0 0 1-1.161-1.337 4.476 4.476 0 0 1-.587-2.224 4.496 4.496 0 0 1 4.5-4.5 4.5 4.5 0 0 1 4.5 4.5 4.5 4.5 0 0 1-7.252 3.561ZM10.5 8.75V11a.75.75 0 0 0 1.5 0V8.75a.75.75 0 1 0-1.5 0Zm.75 5.75a1 1 0 1 0 0-2 1 1 0 0 0 0 2Z"/><path d="m14.354 6.114-.05-.029a5.949 5.949 0 0 0-1.351-.589c.03-.19.047-.422.047-.709 0-.765-.123-1.242-.37-1.554-.233-.296-.693-.587-1.713-.7-1.044-.116-1.488.091-1.681.297-.204.219-.359.679-.242 1.614.058.462.165.834.316 1.127A6.025 6.025 0 0 0 6.369 7.76c-.472.185-1.015.277-1.623.277-.652 0-1.236-.081-1.727-.291l-.023.116v4.255c.265.205 1.285.725 2.577 1.079a5.937 5.937 0 0 0 .939 1.736C2.733 14.407.111 12.027 0 11.286V9.338c.085-.628.677-1.686 1.588-2.065.013-.07.024-.143.036-.218.029-.183.06-.384.126-.612-.201-.508-.254-1.084-.254-1.656 0-.87.128-1.769.693-2.484.579-.733 1.494-1.124 2.724-1.261 1.206-.134 2.262.034 2.944.765.05.053.096.108.139.165.044-.057.094-.112.143-.165.682-.731 1.738-.899 2.944-.765 1.23.137 2.145.528 2.724 1.261.566.715.693 1.614.693 2.484 0 .452-.033.906-.146 1.327ZM6.762 2.83c-.193-.206-.637-.413-1.682-.297-1.019.113-1.479.404-1.713.7-.247.312-.369.789-.369 1.554 0 .793.129 1.171.308 1.371.162.181.519.379 1.442.379.853 0 1.339-.235 1.638-.54.315-.322.527-.827.617-1.553.117-.935-.037-1.395-.241-1.614Z"/></svg>
